X:1
T:Vals
T:troligen från Norge
C:nedtecknad ur minnet av Åke Persson
R:vals
M:3/4
L:1/8
K:A
(3eee | f2 e2 d2 | c2 A2 c2 | B2 G2 B2 | e4 e2 | d6 | c4 B2 | A4 A<A | A4 :|
|: (3eee | e2 c2 e2 | a4 e2 | g4 f2 | e4 d2 | c4 e2 | B4 e2 | A4 A<A | A4 :|

